X:1
T:C Major Oliver Holden, 1800
T:JohnTaylor, 1795 86. 86. 10 8.
T:Penetration No copyright. Treble-Tenor-Bass from Plain Psalmody , 1800; Counter by B. C. Johnston, 2015.
%%score [ 1 2 3 4 ]
L:1/8
M:3/4
K:C
V:1 treble nm="Treble" snm="Tr."
V:2 treble nm="Counter" snm="C."
V:3 treble-8 nm="Tenor" snm="T."
V:4 bass nm="Bass" snm="B."
V:1
 G2 E2 G2 | (A2 cA) GF | (EF/G/ F2) E2 | (E2 D2) c2 | (c2 B2) d2 | (d2 c2) B2 | A4 c2 | %7
w: 1.~Fa- ther di-|vine, * * be- *|fore * * * Thy|view * All|worlds, * all|crea- * tures|lie; No|
w: 2.~From~ Thee our|vi- * * tal *|breath * * * we|drew, * Our|child- * hood|was * Thy|care; And|
 (G2 F2) E2 | (D2 d2) e2 | (c2 B2) A2 | G4 G2 | (A2 cA) GE | (Gc E2) D2 | C6 ||[M:2/4] z2 c2 | %15
w: dis- * tance|can * e-|lude * Thy|search, No|ac- * * tion *|'scape * * Thine|eye.||
w: vigo- * rous|youth * and|fee- * ble|age, Thy|kind * * pro- *|tec- * * tion|share:||
 G3 A | G2 F2 | ED EF | G4 | c2 cc | B3 d | c2 B2 | A4 | c2 AA | d3 e/d/ | c2 B2 | c4 |] %27
w: ||||||||||||
w: ||||||||||||
V:2
 E2 G2 E2 | (F2 EF) EF | (G>F A2) G2 | G4 E2 | (E2 F2) ^G2 | A4 ^G2 | A4 E2 | (C2 D2) E2 | G4 G2 | %9
w: |||||||||
 (A2 F2) D2 | D4 E2 | (F2 AF) GE | E4 G2 | G6 ||[M:2/4] z2 G2 | G3 E | E2 D2 | EF ED | E4 | G2 GG | %20
w: |||||Hear,|gra- cious|Lord, our|min- gled prai- ses|hear;|Thou art our|
 G3 B | A2 G2 | A4 | c2 cA | G3 G | E2 D2 | C4 |] %27
w: hope, our|joy, our|fear;|Thou art our|hope, our|joy, our|fear.|
V:3
 c2 G2 c2 | c4 cd | (e>d c2) c2 | (c2 B2) G2 | G4 B2 | A4 ^G2 | A4 A2 | (E2 F2) G2 | G4 c2 | %9
w: 3.~What- e'er we|do, where- *|e'er * * we|turn, * Thy|cease- less|boun- ty|flows; Op-|pressed * with|woe, when|
w: 4.~To Thee we|look, Thou *|power * * su-|preme, * O|still our|wants sup-|ply! Safe|in * Thy|pre- sence|
 (A2 B2) c2 | B4 c2 | c4 c2 | (ce c2) B2 | c6 ||[M:2/4] z2 G2 | c3 c | c2 G2 | GG cB | c4 | e2 ee | %20
w: na- * ture|faints, Thine|arm is|our * * re-|pose:|||||||
w: may * we|live, And|in Thy|fa- * * vor|die:|||||||
 d3 B | c2 e2 | e4 | e2 ec | B3 c | B2 d2 | e4 |] %27
w: |||||||
w: |||||||
V:4
 C,2 C,2 C,2 | F,4 E,D, | C,4 C,2 | G,,4 C,2 | G,4 ^G,2 | A,4 E,2 | A,,4 A,,2 | C,4 C,2 | %8
 B,,4 C,2 | D,4 D,2 | G,4 C,2 | F,4 E,2 | C,4 G,,2 | C,6 ||[M:2/4] z2 C,2 | C,3 C, | C,2 G,,2 | %17
 C,B,, C,D, | E,4 | C,2 C,C, | G,3 ^G, | A,2 E,2 | A,,4 | A,2 A,A, | G,3 G, | G,2 G,2 | C,4 |] %27

